src/icons/calendar.svg

<svg width="26" height="24" viewBox="0 0 26 24" fill="none" xmlns="http://www.w3.org/2000/svg">
<g clip-path="url(#clip0)">
<path d="M13.5249 17.5316H3.39893C2.73957 17.5316 2.19795 17.0186 2.19795 16.3941V8.38662H18.9646V12.1784C19.2001 12.1561 19.4121 12.1338 19.6475 12.1338C19.883 12.1338 20.095 12.1561 20.3305 12.1784V4.92937C20.3305 3.59108 19.1766 2.49814 17.7636 2.49814H15.1262V0.64684C15.1262 0.289963 14.8201 0 14.4433 0C14.0665 0 13.7604 0.289963 13.7604 0.64684V2.49814H7.40221V0.64684C7.40221 0.289963 7.09608 0 6.7193 0C6.34252 0 6.03639 0.289963 6.03639 0.64684V2.49814H3.39893C1.98601 2.49814 0.832123 3.59108 0.832123 4.92937V16.3941C0.832123 17.7323 1.98601 18.8253 3.39893 18.8253H13.572C13.5249 18.5576 13.5013 18.2677 13.5013 17.9777C13.5013 17.8216 13.5013 17.6654 13.5249 17.5316ZM2.19795 4.92937C2.19795 4.30483 2.73957 3.79182 3.39893 3.79182H6.03639V4.68402C6.03639 5.04089 6.34252 5.33086 6.7193 5.33086C7.09608 5.33086 7.40221 5.04089 7.40221 4.68402V3.79182H13.7368V4.68402C13.7368 5.04089 14.043 5.33086 14.4197 5.33086C14.7965 5.33086 15.1026 5.04089 15.1026 4.68402V3.79182H17.7401C18.3995 3.79182 18.9411 4.30483 18.9411 4.92937V7.09294H2.19795V4.92937Z" fill="white"/>
<path d="M19.6476 13.45C17.0101 13.45 14.8672 15.4797 14.8672 17.9778C14.8672 20.476 17.0101 22.5057 19.6476 22.5057C22.285 22.5057 24.428 20.476 24.428 17.9778C24.428 15.4797 22.285 13.45 19.6476 13.45ZM19.6476 21.212C17.7637 21.212 16.233 19.7622 16.233 17.9778C16.233 16.1934 17.7637 14.7436 19.6476 14.7436C21.5315 14.7436 23.0621 16.1934 23.0621 17.9778C23.0621 19.7622 21.5315 21.212 19.6476 21.212Z" fill="white"/>
<path d="M20.9898 17.3309H20.3304V16.7064C20.3304 16.3495 20.0243 16.0596 19.6475 16.0596C19.2708 16.0596 18.9646 16.3495 18.9646 16.7064V17.3309H18.3053C17.9285 17.3309 17.6223 17.6209 17.6223 17.9778C17.6223 18.3347 17.9285 18.6246 18.3053 18.6246H18.9646V19.2492C18.9646 19.606 19.2708 19.896 19.6475 19.896C20.0243 19.896 20.3304 19.606 20.3304 19.2492V18.6246H20.9898C21.3666 18.6246 21.6727 18.3347 21.6727 17.9778C21.6727 17.6209 21.3666 17.3309 20.9898 17.3309Z" fill="white"/>
</g>
<defs>
<clipPath id="clip0">
<rect width="25.3384" height="24" fill="white" transform="translate(0.643738)"/>
</clipPath>
</defs>
</svg>

<svg xmlns="http://www.w3.org/2000/svg" width="26" height="24" fill="none"><g fill="#fff" clip-path="url(#clip0)"><path d="M13.52 17.53H3.4c-.66 0-1.2-.51-1.2-1.14v-8h16.76v3.79c.24-.02.45-.05.69-.05.23 0 .45.03.68.05V4.93a2.5 2.5 0 0 0-2.57-2.43h-2.63V.65c0-.36-.31-.65-.69-.65a.67.67 0 0 0-.68.65V2.5H7.4V.65C7.4.29 7.1 0 6.72 0a.67.67 0 0 0-.68.65V2.5H3.4A2.5 2.5 0 0 0 .83 4.93v11.46a2.5 2.5 0 0 0 2.57 2.44h10.17a4.95 4.95 0 0 1-.07-.85c0-.16 0-.31.02-.45zM2.2 4.93c0-.63.54-1.14 1.2-1.14h2.64v.9c0 .35.3.64.68.64.38 0 .68-.29.68-.65V3.8h6.34v.9c0 .35.3.64.68.64.38 0 .68-.29.68-.65V3.8h2.64c.66 0 1.2.51 1.2 1.14v2.16H2.2V4.93z"/><path d="M19.65 13.45a4.66 4.66 0 0 0-4.78 4.53c0 2.5 2.14 4.53 4.78 4.53a4.66 4.66 0 0 0 4.78-4.53c0-2.5-2.14-4.53-4.78-4.53zm0 7.76a3.33 3.33 0 0 1-3.42-3.23 3.33 3.33 0 0 1 3.42-3.24 3.33 3.33 0 0 1 3.41 3.24 3.33 3.33 0 0 1-3.41 3.23z"/><path d="M20.99 17.33h-.66v-.62c0-.36-.3-.65-.68-.65a.67.67 0 0 0-.69.65v.62h-.65a.67.67 0 0 0-.69.65c0 .35.3.64.69.64h.65v.63c0 .36.31.65.69.65.37 0 .68-.3.68-.65v-.63h.66c.38 0 .68-.29.68-.64 0-.36-.3-.65-.68-.65z"/></g><defs><clipPath id="clip0"><path fill="#fff" d="M0 0h25.34v24H0z" transform="translate(.64)"/></clipPath></defs></svg>
